; generated by PrusaSlicer 2.7.4+linux-x64-GTK3 on 2024-06-24 at 07:21:35 UTC

; titan dynamics - titan tornado

; external perimeters extrusion width = 0.40mm
; perimeters extrusion width = 0.40mm
; infill extrusion width = 0.40mm
; solid infill extrusion width = 0.40mm
; top infill extrusion width = 0.40mm
; support material extrusion width = 0.40mm
; first layer extrusion width = 0.40mm

; external perimeters extrusion width = 0.40mm
; perimeters extrusion width = 0.40mm
; infill extrusion width = 0.40mm
; solid infill extrusion width = 0.40mm
; top infill extrusion width = 0.40mm
; support material extrusion width = 0.40mm
; first layer extrusion width = 0.40mm

M201 X500 Y500 Z100 E5000 ; sets maximum accelerations, mm/sec^2
M203 X500 Y500 Z10 E60 ; sets maximum feedrates, mm / sec
M204 P500 R1000 T500 ; sets acceleration (P, T) and retract acceleration (R), mm/sec^2
M205 X8.00 Y8.00 Z0.40 E5.00 ; sets the jerk limits, mm/sec
M205 S0 T0 ; sets the minimum extruding and travel feed rate, mm/sec

; printing object aileron.stl id:0 copy 0
; stop printing object aileron.stl id:0 copy 0
; printing object aileron.stl id:1 copy 0
; stop printing object aileron.stl id:1 copy 0

;TYPE:Custom
G90 ; use absolute coordinates
M83 ; extruder relative mode
M104 S150 ; set temporary nozzle temp to prevent oozing during homing and auto bed leveling
M140 S60 ; set final bed temp
G4 S30 ; allow partial nozzle warmup
G28 ; home all axis
G29 ; auto bed levelling
G1 Z50 F240
G1 X2.0 Y10 F3000
M104 S210 ; set final nozzle temp
M190 S60 ; wait for bed temp to stabilize
M109 S210 ; wait for nozzle temp to stabilize
G1 Z0.28 F240
G92 E0
G1 X2.0 Y140 E10 F1500 ; prime the nozzle
G1 X2.3 Y140 F5000
G92 E0
G1 X2.3 Y10 E10 F1200 ; prime the nozzle
G92 E0
G21 ; set units to millimeters
G90 ; use absolute coordinates
M83 ; use relative distances for extrusion
; Filament gcode
M107
;LAYER_CHANGE
;Z:0.25
;HEIGHT:0.25
G1 E-5 F3000
G1 Z.25 F9000
G1 X12.246 Y82.357
G1 Z.25
G1 E5 F2400
M204 P500
;TYPE:Skirt/Brim
;WIDTH:0.4
G1 F1200
G1 X12.968 Y82.25 E.02628
G1 X218.067 Y82.25 E7.38333
G1 X219.643 Y82.644 E.05848
G1 X220.434 Y83.23 E.03544
G1 X224.534 Y87.33 E.20873
G1 X225.37 Y88.723 E.05848
G1 X225.514 Y89.696 E.03541
G1 X225.509 Y140.781 E1.839
G1 X225.115 Y142.357 E.05848
G1 X224.603 Y143.071 E.03163
G1 X220.787 Y147.138 E.20076
G1 X218.733 Y148.172 E.08278
G1 X218.062 Y148.228 E.02424
G1 X12.963 Y148.228 E7.38333
G1 X12.298 Y148.18 E.024
G1 X10.241 Y147.215 E.08179
G1 X6.398 Y143.045 E.20414
G1 X5.623 Y141.618 E.05846
G1 X5.516 Y140.781 E.03038
G1 X5.522 Y89.696 E1.839
G1 X5.916 Y88.121 E.05845
G1 X6.502 Y87.33 E.03544
G1 X10.602 Y83.23 E.20873
G1 X11.995 Y82.394 E.05848
G1 X12.187 Y82.366 E.00698
G1 E-3.5 F3000
;WIPE_START
G1 F7200
G1 X12.246 Y82.357 E-.02362
G1 X12.968 Y82.25 E-.28891
G1 X15.968 Y82.25 E-1.18747
;WIPE_END
G1 X15.181 Y128.532 F9000
G1 E5 F2400
G1 F1200
G1 X215.856 Y128.537 E7.22407
G1 X217.831 Y129.038 E.07335
G1 X219.364 Y129.959 E.06438
G1 X220.661 Y131.311 E.06744
G1 X221.498 Y132.852 E.06313
G1 X221.895 Y134.557 E.06302
G1 X221.917 Y138.497 E.14184
G1 X221.409 Y140.529 E.0754
G1 X220.315 Y142.284 E.07445
G1 X219.458 Y143.118 E.04305
G1 X218.492 Y143.805 E.04267
G1 X215.837 Y144.635 E.10014
G1 X15.228 Y144.627 E7.22169
G1 X13.717 Y144.318 E.05552
G1 X12.304 Y143.659 E.05613
G1 X10.752 Y142.336 E.07342
G1 X9.613 Y140.515 E.07732
G1 X9.108 Y138.401 E.07824
G1 X9.118 Y134.613 E.13636
G1 X9.664 Y132.52 E.07787
G1 X10.633 Y130.967 E.0659
G1 X11.922 Y129.766 E.06342
G1 X13.475 Y128.926 E.06356
G1 X15.123 Y128.546 E.06088
G1 X15.123 Y128.546 F9000
G1 X15.201 Y128.879
G1 F1200
G1 X215.834 Y128.883 E7.22256
G1 X217.675 Y129.348 E.06836
G1 X219.131 Y130.217 E.06104
G1 X220.369 Y131.498 E.06413
G1 X221.167 Y132.953 E.05974
G1 X221.553 Y134.617 E.06149
G1 X221.57 Y138.477 E.13896
G1 X221.101 Y140.37 E.07021
G1 X220.057 Y142.051 E.07123
G1 X219.246 Y142.843 E.04081
G1 X218.314 Y143.507 E.0412
G1 X215.811 Y144.289 E.0944
G1 X15.246 Y144.281 E7.22011
G1 X13.808 Y143.983 E.05287
G1 X12.472 Y143.356 E.05313
G1 X10.998 Y142.091 E.06992
G1 X9.922 Y140.357 E.07346
G1 X9.455 Y138.381 E.07309
G1 X9.464 Y134.635 E.13485
G1 X9.972 Y132.68 E.07271
G1 X10.886 Y131.204 E.0625
G1 X12.108 Y130.059 E.06028
G1 X13.577 Y129.258 E.06023
G1 X15.143 Y128.892 E.05789
G1 X15.143 Y128.892 F9000
G1 X15.222 Y129.225
G1 F1200
G1 X215.813 Y129.23 E7.22105
G1 X217.521 Y129.659 E.0634
G1 X218.9 Y130.475 E.05768
G1 X220.077 Y131.685 E.06077
G1 X220.851 Y133.099 E.05803
G1 X221.211 Y134.675 E.0582
G1 X221.224 Y138.456 E.13611
G1 X220.771 Y140.259 E.06692
G1 X219.801 Y141.817 E.06607
G1 X219.014 Y142.586 E.03961
G1 X218.136 Y143.209 E.03876
G1 X215.785 Y143.943 E.08866
G1 X15.264 Y143.935 E7.21853
G1 X13.899 Y143.648 E.05021
G1 X12.642 Y143.053 E.05006
G1 X11.245 Y141.847 E.06644
G1 X10.232 Y140.2 E.06961
G1 X9.801 Y138.362 E.06796
G1 X9.81 Y134.658 E.13334
G1 X10.281 Y132.839 E.06764
G1 X11.141 Y131.44 E.05912
G1 X12.295 Y130.352 E.05709
G1 X13.681 Y129.59 E.05694
G1 X15.163 Y129.239 E.05483
G1 X15.163 Y129.239 F9000
G1 X15.242 Y129.571
G1 F1200
G1 X215.792 Y129.576 E7.21957
G1 X217.367 Y129.971 E.05845
G1 X218.669 Y130.734 E.05433
G1 X219.785 Y131.873 E.0574
G1 X220.536 Y133.243 E.05624
G1 X220.869 Y134.732 E.05493
G1 X220.877 Y138.436 E.13334
G1 X220.463 Y140.1 E.06173
G1 X219.543 Y141.585 E.06289
G1 X218.802 Y142.311 E.03734
G1 X217.957 Y142.911 E.03731
G1 X215.759 Y143.596 E.08288
G1 X15.282 Y143.588 E7.21694
G1 X14.029 Y143.326 E.04608
G1 X12.812 Y142.75 E.04847
G1 X11.492 Y141.603 E.06295
G1 X10.542 Y140.044 E.06572
G1 X10.147 Y138.343 E.06286
G1 X10.156 Y134.68 E.13186
G1 X10.59 Y132.997 E.06257
G1 X11.397 Y131.675 E.05576
G1 X12.482 Y130.643 E.05391
G1 X13.785 Y129.921 E.05363
G1 X15.184 Y129.585 E.05179
G1 X15.184 Y129.585 F9000
G1 X15.263 Y129.918
G1 F1200
G1 X215.771 Y129.922 E7.21806
G1 X217.215 Y130.282 E.05357
G1 X218.439 Y130.994 E.05098
G1 X219.493 Y132.062 E.05402
G1 X220.203 Y133.344 E.05276
G1 X220.527 Y134.789 E.05331
G1 X220.531 Y138.414 E.1305
G1 X220.134 Y139.989 E.05847
G1 X219.285 Y141.353 E.05784
G1 X218.59 Y142.037 E.0351
G1 X217.779 Y142.613 E.03581
G1 X215.733 Y143.25 E.07714
G1 X15.3 Y143.242 E7.21536
G1 X14.121 Y142.992 E.04339
G1 X12.983 Y142.449 E.04539
G1 X11.741 Y141.361 E.05944
G1 X10.853 Y139.889 E.06189
G1 X10.494 Y138.325 E.05777
G1 X10.503 Y134.702 E.13042
G1 X10.899 Y133.154 E.05752
G1 X11.653 Y131.909 E.0524
G1 X12.671 Y130.934 E.05074
G1 X13.89 Y130.251 E.0503
G1 X15.205 Y129.932 E.04871
G1 X15.205 Y129.932 F9000
G1 X15.284 Y130.264
G1 F1200
G1 X215.75 Y130.269 E7.21655
G1 X217.063 Y130.595 E.0487
G1 X218.21 Y131.255 E.04764
G1 X219.203 Y132.252 E.05066
G1 X219.871 Y133.444 E.04919
G1 X220.185 Y134.846 E.05172
G1 X220.185 Y138.393 E.12769
G1 X219.825 Y139.83 E.05333
G1 X219.027 Y141.121 E.05464
G1 X218.357 Y141.78 E.03383
G1 X217.602 Y142.314 E.03329
G1 X215.706 Y142.904 E.07148
G1 X15.319 Y142.896 E7.2137
G1 X14.215 Y142.658 E.04066
G1 X13.155 Y142.147 E.04236
G1 X11.991 Y141.119 E.0559
G1 X11.164 Y139.735 E.05804
G1 X10.84 Y138.306 E.05275
G1 X10.849 Y134.725 E.12891
G1 X11.21 Y133.31 E.05257
G1 X11.91 Y132.142 E.04902
G1 X12.861 Y131.225 E.04756
G1 X13.997 Y130.582 E.04699
G1 X15.226 Y130.278 E.04558
G1 X15.226 Y130.278 F9000
G1 X15.306 Y130.61
G1 F1200
G1 X215.728 Y130.615 E7.21496
G1 X216.954 Y130.924 E.04551
G1 X218.016 Y131.543 E.04425
G1 X218.94 Y132.478 E.04732
G1 X219.555 Y133.59 E.04575
G1 X219.838 Y134.865 E.04702
G1 X219.838 Y138.371 E.12621
G1 X219.496 Y139.718 E.05003
G1 X218.77 Y140.888 E.04957
G1 X218.125 Y141.523 E.03258
G1 X217.425 Y142.015 E.0308
G1 X215.68 Y142.557 E.06578
G1 X15.338 Y142.549 E7.21208
G1 X14.31 Y142.324 E.03788
G1 X13.329 Y141.847 E.03927
G1 X12.242 Y140.879 E.0524
G1 X11.477 Y139.583 E.05418
G1 X11.187 Y138.288 E.04777
G1 X11.195 Y134.747 E.12747
G1 X11.52 Y133.465 E.04761
G1 X12.168 Y132.374 E.04568
G1 X13.053 Y131.514 E.04442
G1 X14.105 Y130.912 E.04363
G1 X15.248 Y130.625 E.04242
G1 X15.248 Y130.625 F9000
G1 X15.328 Y130.957
G1 F1200
G1 X215.707 Y130.962 E7.21341
G1 X216.803 Y131.237 E.04068
G1 X217.787 Y131.804 E.04088
G1 X218.649 Y132.668 E.04394
G1 X219.24 Y133.735 E.04391
G1 X219.492 Y134.883 E.04231
G1 X219.492 Y138.35 E.12481
G1 X219.187 Y139.56 E.04492
G1 X218.512 Y140.656 E.04634
G1 X217.892 Y141.266 E.03131
G1 X217.249 Y141.716 E.02825
G1 X215.654 Y142.211 E.06012
G1 X15.357 Y142.203 E7.21046
G1 X14.406 Y141.991 E.03508
G1 X13.504 Y141.547 E.03619
G1 X12.494 Y140.64 E.04887
G1 X11.79 Y139.433 E.0503
G1 X11.533 Y138.27 E.04288
G1 X11.542 Y134.769 E.12603
G1 X11.831 Y133.619 E.04269
G1 X12.428 Y132.604 E.04239
G1 X13.246 Y131.802 E.04124
G1 X14.214 Y131.241 E.04028
G1 X15.27 Y130.972 E.03923
G1 X15.27 Y130.972 F9000
G1 X15.351 Y131.303
G1 F1200
G1 X215.685 Y131.308 E7.21179
G1 X216.693 Y131.566 E.03746
G1 X217.56 Y132.066 E.03603
G1 X218.358 Y132.857 E.04045
G1 X218.925 Y133.881 E.04214
G1 X219.146 Y134.901 E.03757
G1 X219.146 Y138.328 E.12337
G1 X218.858 Y139.448 E.04163
G1 X218.254 Y140.424 E.04132
G1 X217.66 Y141.009 E.03001
G1 X217.074 Y141.416 E.02568
G1 X215.628 Y141.864 E.0545
G1 X15.377 Y141.856 E7.20881
G1 X14.503 Y141.658 E.03226
G1 X13.68 Y141.248 E.0331
G1 X12.747 Y140.402 E.04534
G1 X12.104 Y139.284 E.04643
G1 X11.879 Y138.252 E.03802
G1 X11.888 Y134.79 E.12463
G1 X12.143 Y133.771 E.03781
G1 X12.687 Y132.835 E.03897
G1 X13.473 Y132.065 E.03961
G1 X14.325 Y131.57 E.03547
G1 X15.293 Y131.318 E.03601
G1 X15.293 Y131.318 F9000
G1 X15.374 Y131.65
G1 F1200
G1 X215.663 Y131.654 E7.21017
G1 X216.543 Y131.879 E.0327
G1 X217.332 Y132.328 E.03268
G1 X218.096 Y133.085 E.03872
G1 X218.609 Y134.024 E.03852
G1 X218.799 Y134.919 E.03294
G1 X218.799 Y138.306 E.12193
G1 X218.549 Y139.289 E.03651
G1 X217.996 Y140.192 E.03812
G1 X217.428 Y140.751 E.02869
G1 X216.899 Y141.116 E.02314
G1 X215.602 Y141.518 E.04888
G1 X15.397 Y141.51 E7.20715
G1 X14.603 Y141.325 E.02935
G1 X13.858 Y140.95 E.03003
G1 X13.002 Y140.166 E.04179
G1 X12.418 Y139.137 E.04259
G1 X12.226 Y138.235 E.0332
G1 X12.234 Y134.812 E.12322
G1 X12.455 Y133.924 E.03294
G1 X12.974 Y133.03 E.03721
G1 X13.699 Y132.328 E.03633
G1 X14.437 Y131.899 E.03073
G1 X15.316 Y131.665 E.03275
G1 X15.316 Y131.665 F9000
G1 X15.397 Y131.996
G1 F1200
G1 X215.642 Y132.001 E7.20859
G1 X216.394 Y132.192 E.02793
G1 X217.107 Y132.592 E.02943
G1 X217.804 Y133.274 E.0351
G1 X218.292 Y134.167 E.03663
G1 X218.453 Y134.937 E.02832
G1 X218.453 Y138.284 E.12049
G1 X218.221 Y139.177 E.03321
G1 X217.738 Y139.96 E.03312
G1 X217.196 Y140.493 E.02737
G1 X216.725 Y140.815 E.02054
G1 X215.576 Y141.172 E.04331
G1 X15.418 Y141.164 E7.20546
G1 X14.704 Y140.994 E.02642
G1 X14.038 Y140.653 E.02694
G1 X13.257 Y139.931 E.03829
G1 X12.734 Y138.992 E.03869
G1 X12.572 Y138.218 E.02847
G1 X12.581 Y134.833 E.12186
G1 X12.768 Y134.074 E.02814
G1 X13.233 Y133.261 E.03372
G1 X13.925 Y132.591 E.03467
G1 X14.55 Y132.227 E.02604
G1 X15.339 Y132.012 E.02944
G1 X15.339 Y132.012 F9000
G1 X15.421 Y132.342
G1 F1200
G1 X215.62 Y132.347 E7.20693
G1 X216.246 Y132.506 E.02325
G1 X216.882 Y132.857 E.02615
G1 X217.543 Y133.503 E.03327
G1 X217.975 Y134.308 E.03289
G1 X218.107 Y134.954 E.02374
G1 X218.107 Y138.261 E.11905
G1 X217.893 Y139.062 E.02985
G1 X217.481 Y139.727 E.02816
G1 X216.965 Y140.235 E.02607
G1 X216.553 Y140.514 E.01791
G1 X215.55 Y140.825 E.0378
G1 X15.44 Y140.817 E7.20373
G1 X14.808 Y140.663 E.02342
G1 X14.219 Y140.357 E.02389
G1 X13.515 Y139.698 E.03471
G1 X13.05 Y138.85 E.03482
G1 X12.919 Y138.202 E.0238
G1 X12.927 Y134.855 E.12049
G1 X13.082 Y134.223 E.02343
G1 X13.493 Y133.492 E.03019
G1 X14.151 Y132.855 E.03297
G1 X14.665 Y132.554 E.02144
G1 X15.364 Y132.358 E.02613
G1 X15.364 Y132.358 F9000
G1 X15.447 Y132.689
G1 F1200
G1 X215.558 Y132.688 E7.20377
G1 X216.102 Y132.822 E.02017
G1 X216.66 Y133.124 E.02284
G1 X217.251 Y133.691 E.02948
G1 X217.657 Y134.448 E.03092
G1 X217.76 Y134.97 E.01915
G1 X217.76 Y138.237 E.11761
G1 X217.566 Y138.945 E.02643
G1 X217.223 Y139.495 E.02333
G1 X216.382 Y140.212 E.03978
G1 X215.523 Y140.479 E.03238
G1 X15.462 Y140.471 E7.20197
G1 X14.914 Y140.332 E.02035
G1 X14.403 Y140.062 E.02081
G1 X13.774 Y139.467 E.03117
G1 X13.368 Y138.71 E.03092
G1 X13.265 Y138.186 E.01922
G1 X13.273 Y134.876 E.11916
G1 X13.396 Y134.369 E.01878
G1 X13.753 Y133.723 E.02657
G1 X14.377 Y133.118 E.03129
G1 X14.783 Y132.88 E.01694
G1 X15.389 Y132.705 E.02271
G1 X15.389 Y132.705 F9000
G1 X15.473 Y133.035
G1 F1200
G1 X215.499 Y133.03 E7.20071
G1 X215.962 Y133.139 E.01712
G1 X216.439 Y133.391 E.01942
G1 X216.99 Y133.921 E.02752
G1 X217.338 Y134.585 E.02699
G1 X217.414 Y134.986 E.01469
G1 X217.414 Y138.212 E.11613
G1 X217.24 Y138.826 E.02297
G1 X216.966 Y139.262 E.01854
G1 X216.212 Y139.909 E.03577
G1 X215.497 Y140.133 E.02697
G1 X15.484 Y140.125 E7.20024
G1 X15.058 Y140.017 E.01582
G1 X14.587 Y139.768 E.01918
G1 X14.035 Y139.238 E.02755
G1 X13.687 Y138.574 E.02699
G1 X13.611 Y138.171 E.01476
G1 X13.619 Y134.897 E.11786
G1 X13.712 Y134.512 E.01426
G1 X14.014 Y133.952 E.0229
G1 X14.603 Y133.381 E.02953
G1 X14.903 Y133.206 E.0125
G1 X15.415 Y133.052 E.01925
G1 X15.415 Y133.052 F9000
G1 X15.5 Y133.381
G1 F1200
G1 X215.444 Y133.372 E7.19775
G1 X215.821 Y133.456 E.0139
G1 X216.254 Y133.685 E.01763
G1 X216.727 Y134.147 E.0238
G1 X217.017 Y134.718 E.02305
G1 X217.068 Y138.186 E.12486
G1 X216.915 Y138.704 E.01944
G1 X216.708 Y139.03 E.0139
G1 X216.079 Y139.588 E.03027
G1 X215.469 Y139.786 E.02309
G1 X15.505 Y139.778 E7.19847
G1 X14.771 Y139.474 E.0286
G1 X14.299 Y139.011 E.0238
G1 X14.008 Y138.441 E.02304
G1 X13.958 Y138.158 E.01035
G1 X13.966 Y134.918 E.11664
G1 X14.03 Y134.652 E.00985
G1 X14.275 Y134.181 E.01911
G1 X14.829 Y133.644 E.02777
G1 X15.444 Y133.403 E.02378
G1 X15.444 Y133.403 F9000
G1 X15.533 Y133.727
G1 F1200
G1 X16.263 Y133.719 E.02628
G1 X215.425 Y133.719 E7.1696
G1 X216.068 Y133.979 E.02497
G1 X216.46 Y134.371 E.01996
G1 X216.694 Y134.845 E.01903
G1 X216.721 Y138.159 E.1193
G1 X216.592 Y138.578 E.01578
G1 X216.078 Y139.171 E.02825
G1 X215.439 Y139.44 E.02496
G1 X15.527 Y139.432 E7.1966
G1 X14.957 Y139.18 E.02244
G1 X14.565 Y138.788 E.01996
G1 X14.331 Y138.313 E.01906
G1 X14.312 Y134.942 E.12135
G1 X14.537 Y134.409 E.02083
G1 X15.054 Y133.909 E.02589
G1 X15.477 Y133.748 E.01629
G1 X15.477 Y133.748 F9000
G1 X15.584 Y134.075
G1 F1200
G1 X15.614 Y134.065 E.00114
G1 X16.262 Y134.065 E.02333
G1 X215.408 Y134.065 E7.16903
G1 X215.844 Y134.244 E.01697
G1 X216.195 Y134.595 E.01787
G1 X216.358 Y134.929 E.01338
G1 X216.375 Y138.13 E.11523
G1 X216.193 Y138.565 E.01697
G1 X215.844 Y138.914 E.01777
G1 X215.41 Y139.094 E.01691
G1 X15.585 Y139.09 E7.19347
G1 X15.181 Y138.914 E.01586
G1 X14.831 Y138.564 E.01782
G1 X14.668 Y138.229 E.01341
G1 X14.654 Y135 E.11624
G1 X14.832 Y134.593 E.01599
G1 X15.282 Y134.174 E.02213
G1 X15.527 Y134.093 E.00929
G1 X15.527 Y134.093 F9000
G1 X15.642 Y134.413
G1 F1200
G1 X15.646 Y134.411 E.00016
G1 X215.392 Y134.411 E7.19063
G1 X215.622 Y134.512 E.00904
G1 X215.928 Y134.818 E.01558
G1 X216.029 Y135.048 E.00904
G1 X216.029 Y138.098 E.1098
G1 X215.937 Y138.332 E.00905
G1 X215.613 Y138.656 E.01649
G1 X215.379 Y138.747 E.00904
G1 X15.633 Y138.747 E7.19063
G1 X15.403 Y138.647 E.00903
G1 X15.097 Y138.341 E.01558
G1 X14.997 Y138.111 E.00903
G1 X14.997 Y135.048 E.11026
G1 X15.096 Y134.82 E.00895
G1 X15.452 Y134.481 E.0177
G1 X15.585 Y134.433 E.00509
G1 X15.585 Y134.433 F9000
G1 X15.685 Y134.758
G1 F1200
G1 X16.262 Y134.758 E.02077
G1 X215.341 Y134.758 E7.16662
G1 X215.682 Y135.099 E.01736
G1 X215.682 Y138.059 E.10656
G1 X215.341 Y138.401 E.01739
G1 X15.685 Y138.401 E7.18739
G1 X15.343 Y138.059 E.01741
G1 X15.343 Y135.099 E.10656
G1 X15.642 Y134.8 E.01522
G1 X15.642 Y134.8 F9000
G1 X15.791 Y135.104
G1 F1200
G1 X215.234 Y135.104 E7.17972
G1 X215.336 Y135.205 E.00517
G1 X215.336 Y137.953 E.09892
G1 X215.234 Y138.055 E.00519
G1 X15.791 Y138.055 E7.17972
G1 X15.69 Y137.953 E.00517
G1 X15.69 Y135.205 E.09892
G1 X15.749 Y135.146 E.003
G1 E-3.5 F3000
;WIPE_START
G1 F7200
G1 X15.791 Y135.104 E-.02351
G1 X19.521 Y135.104 E-1.47649
;WIPE_END
