; generated by PrusaSlicer 2.7.4+linux-x64-GTK3 on 2024-06-16 at 04:40:51 UTC

; titan dynamics - titan tornado

; external perimeters extrusion width = 0.80mm
; perimeters extrusion width = 0.80mm
; infill extrusion width = 0.80mm
; solid infill extrusion width = 0.44mm
; top infill extrusion width = 0.40mm
; first layer extrusion width = 0.42mm

M201 X500 Y500 Z100 E5000 ; sets maximum accelerations, mm/sec^2
M203 X500 Y500 Z10 E60 ; sets maximum feedrates, mm / sec
M204 P500 R1000 T500 ; sets acceleration (P, T) and retract acceleration (R), mm/sec^2
M205 X8.00 Y8.00 Z0.40 E5.00 ; sets the jerk limits, mm/sec
M205 S0 T0 ; sets the minimum extruding and travel feed rate, mm/sec

; printing object wing3.stl id:0 copy 0
; stop printing object wing3.stl id:0 copy 0

;TYPE:Custom
G90 ; use absolute coordinates
M83 ; extruder relative mode
M104 S150 ; set temporary nozzle temp to prevent oozing during homing and auto bed leveling
M140 S60 ; set final bed temp
G4 S30 ; allow partial nozzle warmup
G28 ; home all axis
G29 ; auto bed levelling
G1 Z50 F240
G1 X2.0 Y10 F3000
M104 S210 ; set final nozzle temp
M190 S60 ; wait for bed temp to stabilize
M109 S210 ; wait for nozzle temp to stabilize
G1 Z0.28 F240
G92 E0
G1 X2.0 Y140 E10 F1500 ; prime the nozzle
G1 X2.3 Y140 F5000
G92 E0
G1 X2.3 Y10 E10 F1200 ; prime the nozzle
G92 E0
G21 ; set units to millimeters
G90 ; use absolute coordinates
M83 ; use relative distances for extrusion
; Filament gcode
M107
;LAYER_CHANGE
;Z:0.25
;HEIGHT:0.25
G1 E-5 F3000
G1 Z.25 F9000
G1 X21.402 Y107.712
G1 Z.25
G1 E5 F2400
M204 P500
;TYPE:Skirt/Brim
;WIDTH:0.42
G1 F1200
G1 X23.281 Y107.339 E.07659
G1 X39.513 Y104.422 E.65938
G1 X55.964 Y101.71 E.66661
G1 X71.91 Y99.41 E.64414
G1 X88.349 Y97.387 E.66221
G1 X103.799 Y95.83 E.62084
G1 X111.774 Y95.169 E.31995
G1 X119.784 Y94.61 E.32103
G1 X133.051 Y93.942 E.53111
G1 X138.915 Y93.781 E.23454
G1 X145.793 Y93.718 E.275
G1 X153.043 Y93.818 E.28989
G1 X162.061 Y94.198 E.36087
G1 X170.279 Y94.824 E.32952
G1 X177.676 Y95.652 E.29759
G1 X184.269 Y96.642 E.26655
G1 X191.26 Y98.019 E.28488
G1 X196.145 Y99.247 E.20139
G1 X201.194 Y100.853 E.21183
G1 X204.825 Y102.342 E.15691
G1 X206.48 Y103.167 E.07393
G1 X208.003 Y104.05 E.07039
G1 X209.508 Y105.089 E.07312
G1 X210.384 Y105.8 E.04511
G1 X211.34 Y106.706 E.05266
G1 X212.282 Y107.793 E.05751
G1 X213.005 Y108.825 E.05038
G1 X213.761 Y110.253 E.0646
G1 X214.233 Y111.534 E.05458
G1 X214.565 Y113.073 E.06295
G1 X214.659 Y114.172 E.0441
G1 X214.634 Y115.323 E.04603
G1 X214.378 Y116.913 E.06439
G1 X214.069 Y117.954 E.04342
G1 X213.445 Y119.374 E.06201
G1 X212.519 Y120.822 E.06872
G1 X211.516 Y121.979 E.06122
G1 X210.38 Y122.992 E.06085
G1 X208.854 Y124.043 E.07408
G1 X207.633 Y124.708 E.05559
G1 X205.925 Y125.453 E.0745
G1 X203.498 Y126.258 E.10223
G1 X201.653 Y126.73 E.07614
G1 X198.899 Y127.284 E.11231
G1 X195.922 Y127.738 E.1204
G1 X192.623 Y128.117 E.13277
G1 X184.957 Y128.668 E.30729
G1 X175.662 Y128.959 E.37181
G1 X166.575 Y129.011 E.36332
G1 X156.258 Y128.909 E.41251
G1 X124.853 Y128.199 E1.25594
G1 X21.463 Y124.611 E4.13617
G1 X16.585 Y124.074 E.19621
G1 X15.059 Y123.504 E.06513
G1 X13.98 Y122.284 E.06512
G1 X13.612 Y121.022 E.05256
G1 X12.902 Y112.881 E.32672
G1 X13.157 Y111.272 E.06513
G1 X14.137 Y109.971 E.06512
G1 X15.301 Y109.36 E.05256
G1 X20.042 Y107.982 E.1974
G1 X21.343 Y107.723 E.05304
G1 E-3.5 F3000
;WIPE_START
G1 F7200
G1 X21.402 Y107.712 E-.02376
G1 X23.281 Y107.339 E-.75828
G1 X25.066 Y107.018 E-.71796
;WIPE_END
G1 X22.087 Y111.439 F9000
G1 E5 F2400
G1 F1200
G1 X23.94 Y111.068 E.07556
G1 X25.367 Y110.887 E.05751
G1 X40.164 Y108.153 E.60162
G1 X48.339 Y106.762 E.33155
G1 X64.064 Y104.328 E.6362
G1 X76.872 Y102.579 E.51684
G1 X88.771 Y101.15 E.47916
G1 X104.128 Y99.603 E.6171
G1 X112.067 Y98.944 E.3185
G1 X120.028 Y98.389 E.31907
G1 X133.176 Y97.727 E.52634
G1 X140.845 Y97.535 E.30671
G1 X150.558 Y97.551 E.38834
G1 X157.454 Y97.757 E.27584
G1 X163.915 Y98.111 E.25871
G1 X169.917 Y98.594 E.24074
G1 X177.21 Y99.411 E.29341
G1 X182.108 Y100.123 E.19789
G1 X189.167 Y101.436 E.28707
G1 X192.847 Y102.29 E.15104
G1 X197.114 Y103.479 E.1771
G1 X200.799 Y104.749 E.15584
G1 X203.932 Y106.114 E.13663
G1 X205.34 Y106.866 E.06382
G1 X206.662 Y107.701 E.06252
G1 X207.898 Y108.656 E.06245
G1 X208.54 Y109.259 E.03521
G1 X209.674 Y110.647 E.07166
G1 X210.233 Y111.647 E.0458
G1 X210.63 Y112.716 E.04559
G1 X210.845 Y113.863 E.04666
G1 X210.858 Y114.998 E.04538
G1 X210.65 Y116.21 E.04917
G1 X210.172 Y117.452 E.05321
G1 X209.458 Y118.59 E.05371
G1 X208.846 Y119.291 E.03721
G1 X207.525 Y120.398 E.06891
G1 X206.802 Y120.859 E.03428
G1 X205.303 Y121.616 E.06714
G1 X203.975 Y122.136 E.05702
G1 X201.671 Y122.828 E.09618
G1 X197.35 Y123.704 E.17627
G1 X192.245 Y124.348 E.20572
G1 X188.723 Y124.647 E.14132
G1 X181.917 Y125.008 E.2725
G1 X172.149 Y125.213 E.39063
G1 X154.112 Y125.086 E.72116
G1 X122.366 Y124.338 E1.2696
G1 X103.441 Y123.704 E.75707
G1 X43.37 Y121.47 E2.40339
G1 X26.64 Y120.896 E.66928
G1 X24.856 Y120.931 E.07134
G1 X21.617 Y120.827 E.12957
G1 X20.146 Y120.637 E.0593
G1 X18.84 Y120.038 E.05745
G1 X17.826 Y119.047 E.05669
G1 X17.542 Y118.574 E.02206
G1 X17.091 Y117.349 E.05219
G1 X16.979 Y115.615 E.06947
G1 X17.469 Y113.949 E.06943
G1 X18.059 Y113.12 E.04068
G1 X18.818 Y112.45 E.04048
G1 X19.468 Y112.104 E.02944
G1 X20.719 Y111.713 E.0524
G1 X22.028 Y111.451 E.05337
G1 X22.028 Y111.451 F9000
G1 X22.1 Y111.809
G1 F1200
G1 X24.005 Y111.428 E.07767
G1 X25.424 Y111.25 E.05718
G1 X40.228 Y108.514 E.60191
G1 X56.597 Y105.815 E.66329
G1 X72.457 Y103.527 E.64067
G1 X81.569 Y102.361 E.36728
G1 X96.37 Y100.709 E.59544
G1 X104.161 Y99.968 E.3129
G1 X112.093 Y99.31 E.31822
G1 X126.046 Y98.413 E.55901
G1 X138.298 Y97.946 E.49021
G1 X146.113 Y97.873 E.31247
G1 X152.907 Y97.969 E.27166
G1 X160.225 Y98.257 E.29281
G1 X165.959 Y98.625 E.22973
G1 X171.805 Y99.148 E.23467
G1 X177.161 Y99.774 E.2156
G1 X184.989 Y100.986 E.3167
G1 X190.388 Y102.08 E.22025
G1 X194.971 Y103.231 E.18893
G1 X198.896 Y104.445 E.16426
G1 X202.258 Y105.741 E.14406
G1 X205.15 Y107.18 E.12915
G1 X206.451 Y108.001 E.06151
G1 X207.661 Y108.936 E.06114
G1 X208.843 Y110.14 E.06746
G1 X209.373 Y110.856 E.03562
G1 X209.895 Y111.788 E.04271
G1 X210.281 Y112.828 E.04435
G1 X210.482 Y113.913 E.04412
G1 X210.492 Y114.984 E.04282
G1 X210.301 Y116.095 E.04507
G1 X209.837 Y117.304 E.05178
G1 X209.172 Y118.36 E.04989
G1 X208.59 Y119.029 E.03545
G1 X207.309 Y120.101 E.06678
G1 X205.907 Y120.928 E.06508
G1 X203.855 Y121.79 E.08899
G1 X201.584 Y122.472 E.0948
G1 X199.941 Y122.855 E.06745
G1 X197.297 Y123.341 E.10748
G1 X194.421 Y123.741 E.11609
G1 X188.694 Y124.282 E.22999
G1 X181.904 Y124.642 E.27186
G1 X172.147 Y124.847 E.39019
G1 X154.119 Y124.719 E.7208
G1 X122.376 Y123.972 E1.26948
G1 X103.454 Y123.338 E.75695
G1 X43.383 Y121.104 E2.40339
G1 X26.65 Y120.53 E.6694
G1 X24.86 Y120.564 E.07158
G1 X21.636 Y120.461 E.12897
G1 X20.27 Y120.291 E.05504
G1 X19.071 Y119.752 E.05256
G1 X18.127 Y118.836 E.05259
G1 X17.879 Y118.428 E.01909
G1 X17.454 Y117.296 E.04834
G1 X17.34 Y115.685 E.06457
G1 X17.787 Y114.134 E.06454
G1 X18.318 Y113.38 E.03687
G1 X19.044 Y112.739 E.03872
G1 X19.593 Y112.449 E.02482
G1 X20.819 Y112.065 E.05137
G1 X22.041 Y111.821 E.04982
G1 X22.113 Y112.18 F9000
G1 F1200
G1 X24.068 Y111.789 E.07971
G1 X25.489 Y111.61 E.05726
G1 X40.292 Y108.874 E.60187
G1 X48.46 Y107.485 E.33126
G1 X64.169 Y105.053 E.63555
G1 X76.966 Y103.306 E.51639
G1 X88.854 Y101.878 E.47872
G1 X104.195 Y100.332 E.61646
G1 X112.12 Y99.675 E.31794
G1 X120.077 Y99.12 E.31891
G1 X133.203 Y98.459 E.52546
G1 X140.852 Y98.267 E.30591
G1 X150.549 Y98.284 E.3877
G1 X157.426 Y98.489 E.27507
G1 X163.869 Y98.842 E.25799
G1 X169.852 Y99.324 E.23998
G1 X177.111 Y100.136 E.29204
G1 X181.988 Y100.846 E.19705
G1 X189.019 Y102.153 E.28593
G1 X192.672 Y103.002 E.14995
G1 X196.902 Y104.18 E.17556
G1 X200.541 Y105.435 E.1539
G1 X203.614 Y106.774 E.13402
G1 X204.96 Y107.493 E.06101
G1 X206.24 Y108.3 E.0605
G1 X207.424 Y109.215 E.05983
G1 X208.565 Y110.379 E.06517
G1 X209.071 Y111.064 E.03405
G1 X209.568 Y111.953 E.04072
G1 X209.931 Y112.94 E.04205
G1 X210.119 Y113.963 E.04159
G1 X210.125 Y114.97 E.04026
G1 X209.952 Y115.982 E.04105
G1 X209.516 Y117.125 E.04891
G1 X208.886 Y118.131 E.04746
G1 X208.334 Y118.767 E.03367
G1 X207.106 Y119.797 E.06408
G1 X205.746 Y120.599 E.06313
G1 X203.726 Y121.447 E.08759
G1 X201.489 Y122.119 E.09339
G1 X199.862 Y122.498 E.06679
G1 X197.239 Y122.979 E.10662
G1 X194.373 Y123.378 E.11569
G1 X188.669 Y123.916 E.22907
G1 X181.891 Y124.276 E.27138
G1 X172.145 Y124.48 E.38974
G1 X154.126 Y124.353 E.72044
G1 X122.387 Y123.605 E1.26932
G1 X103.467 Y122.972 E.75687
G1 X43.396 Y120.738 E2.40339
G1 X26.659 Y120.164 E.66956
G1 X24.865 Y120.198 E.07174
G1 X21.655 Y120.096 E.12841
G1 X20.391 Y119.945 E.0509
G1 X19.301 Y119.465 E.04762
G1 X18.426 Y118.624 E.04852
G1 X18.215 Y118.281 E.0161
G1 X17.817 Y117.24 E.04456
G1 X17.702 Y115.752 E.05967
G1 X18.105 Y114.319 E.05952
G1 X18.605 Y113.61 E.03469
G1 X19.268 Y113.03 E.03522
G1 X19.718 Y112.794 E.02032
G1 X20.919 Y112.418 E.05032
G1 X22.054 Y112.191 E.04628
G1 X22.054 Y112.191 F9000
G1 X22.125 Y112.55
G1 F1200
G1 X24.132 Y112.15 E.08182
G1 X25.552 Y111.971 E.05722
G1 X40.356 Y109.235 E.60191
G1 X48.52 Y107.846 E.3311
G1 X64.222 Y105.415 E.63527
G1 X81.658 Y103.088 E.7033
G1 X96.446 Y101.438 E.59492
G1 X104.228 Y100.697 E.31254
G1 X112.147 Y100.04 E.3177
G1 X126.082 Y99.144 E.55829
G1 X138.317 Y98.678 E.48953
G1 X146.109 Y98.606 E.31155
G1 X152.888 Y98.701 E.27106
G1 X160.188 Y98.989 E.29209
G1 X165.904 Y99.356 E.229
G1 X171.726 Y99.877 E.2337
G1 X177.061 Y100.499 E.21475
G1 X184.863 Y101.708 E.31566
G1 X190.227 Y102.795 E.21882
G1 X194.77 Y103.936 E.18728
G1 X198.663 Y105.14 E.16292
G1 X201.957 Y106.409 E.14113
G1 X204.77 Y107.807 E.12559
G1 X206.624 Y109.034 E.08889
G1 X207.771 Y110.044 E.0611
G1 X208.276 Y110.604 E.03015
G1 X208.757 Y111.254 E.03233
G1 X209.23 Y112.095 E.03858
G1 X209.574 Y113.023 E.03957
G1 X209.753 Y113.983 E.03904
G1 X209.761 Y114.926 E.0377
G1 X209.604 Y115.868 E.03818
G1 X209.181 Y116.977 E.04746
G1 X208.6 Y117.901 E.04364
G1 X207.516 Y119.025 E.06243
G1 X206.26 Y119.902 E.06125
G1 X204.885 Y120.599 E.06163
G1 X203.597 Y121.104 E.05531
G1 X201.393 Y121.765 E.092
G1 X199.782 Y122.14 E.06613
G1 X197.181 Y122.618 E.10573
G1 X194.325 Y123.015 E.11529
G1 X188.643 Y123.551 E.22818
G1 X181.878 Y123.91 E.27086
G1 X172.143 Y124.114 E.38931
G1 X154.133 Y123.987 E.72008
G1 X122.397 Y123.239 E1.2692
G1 X103.48 Y122.606 E.75675
G1 X43.408 Y120.372 E2.40343
G1 X26.669 Y119.797 E.66964
G1 X24.869 Y119.831 E.07198
G1 X21.674 Y119.73 E.1278
G1 X20.51 Y119.597 E.04684
G1 X19.529 Y119.177 E.04267
G1 X18.724 Y118.409 E.04448
G1 X18.18 Y117.184 E.05359
G1 X18.07 Y115.755 E.0573
G1 X18.422 Y114.505 E.05192
G1 X18.891 Y113.839 E.03257
G1 X19.491 Y113.321 E.03169
G1 X19.842 Y113.139 E.01581
G1 X21.019 Y112.77 E.04932
G1 X22.066 Y112.562 E.04268
G1 X22.066 Y112.562 F9000
G1 X22.135 Y112.937
G1 F1200
G1 X40.419 Y109.596 E.74313
G1 X48.579 Y108.208 E.33094
G1 X64.275 Y105.778 E.63503
G1 X72.605 Y104.616 E.33627
G1 X81.702 Y103.452 E.36668
G1 X96.483 Y101.803 E.59463
G1 X112.173 Y100.406 E.62979
G1 X120.125 Y99.851 E.31871
G1 X133.23 Y99.192 E.52462
G1 X140.858 Y99 E.30508
G1 X150.539 Y99.017 E.38706
G1 X157.399 Y99.221 E.27439
G1 X163.823 Y99.573 E.25723
G1 X169.787 Y100.054 E.23922
G1 X175.274 Y100.643 E.22064
G1 X180.278 Y101.321 E.2019
G1 X186.238 Y102.337 E.24173
G1 X190.147 Y103.152 E.15965
G1 X194.674 Y104.289 E.18662
G1 X198.546 Y105.487 E.16205
G1 X201.815 Y106.747 E.14007
G1 X204.592 Y108.127 E.12398
G1 X206.396 Y109.321 E.08649
G1 X207.514 Y110.306 E.05957
G1 X207.998 Y110.843 E.0289
G1 X208.444 Y111.444 E.02992
G1 X208.892 Y112.237 E.03642
G1 X209.217 Y113.105 E.03706
G1 X209.389 Y114.034 E.03777
G1 X209.397 Y114.883 E.03395
G1 X209.255 Y115.755 E.03532
G1 X208.845 Y116.83 E.046
G1 X208.314 Y117.673 E.03983
G1 X207.274 Y118.75 E.05986
G1 X206.078 Y119.584 E.0583
G1 X204.746 Y120.26 E.05972
G1 X203.468 Y120.761 E.05488
G1 X201.298 Y121.411 E.09057
G1 X199.702 Y121.782 E.06551
G1 X197.123 Y122.256 E.10484
G1 X194.277 Y122.652 E.11488
G1 X188.618 Y123.185 E.22726
G1 X181.865 Y123.544 E.27038
G1 X172.141 Y123.748 E.38887
G1 X154.139 Y123.621 E.71976
G1 X122.408 Y122.873 E1.26901
G1 X103.493 Y122.239 E.75667
G1 X43.421 Y120.005 E2.40343
G1 X26.678 Y119.431 E.6698
G1 X24.874 Y119.465 E.07214
G1 X21.692 Y119.364 E.12729
G1 X20.625 Y119.249 E.04291
G1 X19.755 Y118.887 E.03767
G1 X19.019 Y118.192 E.04047
G1 X18.544 Y117.127 E.04662
G1 X18.437 Y115.76 E.05482
G1 X18.74 Y114.688 E.04454
G1 X19.148 Y114.101 E.02858
G1 X19.713 Y113.613 E.02985
G1 X21.119 Y113.123 E.05953
G1 X22.076 Y112.948 E.0389
G1 X22.142 Y113.308 F9000
G1 F1200
G1 X40.481 Y109.957 E.74536
G1 X48.638 Y108.57 E.33081
G1 X64.327 Y106.14 E.63475
G1 X72.653 Y104.979 E.33611
G1 X81.745 Y103.816 E.36647
G1 X96.521 Y102.167 E.59443
G1 X112.2 Y100.771 E.62935
G1 X120.15 Y100.217 E.31862
G1 X130.645 Y99.661 E.42019
G1 X138.336 Y99.411 E.30766
G1 X146.104 Y99.339 E.31059
G1 X152.87 Y99.434 E.27054
G1 X160.151 Y99.721 E.29133
G1 X165.849 Y100.086 E.22828
G1 X171.647 Y100.605 E.23274
G1 X176.962 Y101.225 E.21394
G1 X181.807 Y101.93 E.19575
G1 X186.167 Y102.696 E.17699
G1 X192.411 Y104.069 E.25561
G1 X196.584 Y105.232 E.1732
G1 X200.155 Y106.464 E.15103
G1 X203.137 Y107.764 E.13006
G1 X204.413 Y108.447 E.05787
G1 X205.628 Y109.213 E.05743
G1 X207.258 Y110.567 E.08472
G1 X208.131 Y111.635 E.05515
G1 X208.554 Y112.379 E.03422
G1 X208.868 Y113.218 E.03582
G1 X209.026 Y114.084 E.0352
G1 X209.031 Y114.869 E.03139
G1 X208.896 Y115.676 E.03271
G1 X208.51 Y116.681 E.04304
G1 X208.027 Y117.444 E.0361
G1 X207.032 Y118.475 E.05729
G1 X205.887 Y119.272 E.05578
G1 X204.595 Y119.926 E.0579
G1 X203.348 Y120.415 E.05355
G1 X201.202 Y121.058 E.08957
G1 X199.623 Y121.425 E.06481
G1 X197.065 Y121.894 E.10398
G1 X194.229 Y122.289 E.11448
G1 X188.593 Y122.82 E.22633
G1 X181.852 Y123.178 E.2699
G1 X172.137 Y123.381 E.3885
G1 X154.146 Y123.254 E.71932
G1 X122.418 Y122.507 E1.26888
G1 X103.506 Y121.873 E.75655
G1 X43.434 Y119.639 E2.40343
G1 X26.688 Y119.065 E.66992
G1 X24.878 Y119.099 E.07238
G1 X21.711 Y118.998 E.12669
G1 X20.689 Y118.887 E.0411
G1 X19.98 Y118.596 E.03064
G1 X19.313 Y117.972 E.03652
G1 X18.907 Y117.07 E.03955
G1 X18.805 Y115.764 E.05237
G1 X19.058 Y114.872 E.03707
G1 X19.435 Y114.33 E.0264
G1 X19.932 Y113.907 E.02609
G1 X21.201 Y113.48 E.05353
G1 X22.083 Y113.319 E.03585
G1 X22.083 Y113.319 F9000
G1 X22.149 Y113.679
G1 F1200
G1 X40.543 Y110.318 E.7476
G1 X48.696 Y108.931 E.33065
G1 X64.378 Y106.503 E.63446
G1 X72.702 Y105.342 E.33603
G1 X81.788 Y104.18 E.36623
G1 X96.559 Y102.531 E.59424
G1 X112.227 Y101.137 E.6289
G1 X120.174 Y100.582 E.31851
G1 X133.258 Y99.924 E.52378
G1 X140.864 Y99.733 E.3042
G1 X150.53 Y99.749 E.38646
G1 X157.371 Y99.953 E.27363
G1 X163.777 Y100.305 E.25651
G1 X169.723 Y100.784 E.2385
G1 X175.189 Y101.371 E.2198
G1 X180.171 Y102.046 E.20101
G1 X186.095 Y103.055 E.24026
G1 X189.983 Y103.866 E.15879
G1 X194.481 Y104.996 E.18542
G1 X198.313 Y106.182 E.16038
G1 X201.53 Y107.422 E.13784
G1 X204.223 Y108.76 E.12023
G1 X205.948 Y109.901 E.08269
G1 X206.991 Y110.818 E.05553
G1 X207.431 Y111.307 E.0263
G1 X208.228 Y112.546 E.0589
G1 X208.519 Y113.33 E.03344
G1 X208.663 Y114.132 E.03258
G1 X208.664 Y114.854 E.02887
G1 X208.538 Y115.596 E.03009
G1 X208.175 Y116.531 E.0401
G1 X207.741 Y117.215 E.03239
G1 X206.79 Y118.199 E.05471
G1 X205.695 Y118.959 E.05329
G1 X204.445 Y119.592 E.05602
G1 X203.228 Y120.069 E.05226
G1 X201.107 Y120.704 E.08852
G1 X199.55 Y121.066 E.06391
G1 X197.007 Y121.532 E.10337
G1 X194.182 Y121.925 E.11404
G1 X188.568 Y122.454 E.22545
G1 X181.839 Y122.812 E.26942
G1 X172.133 Y123.015 E.38815
G1 X154.153 Y122.888 E.71889
G1 X122.429 Y122.141 E1.26872
G1 X103.519 Y121.507 E.75647
G1 X43.446 Y119.273 E2.40347
G1 X26.697 Y118.699 E.67004
G1 X24.882 Y118.732 E.07258
G1 X21.729 Y118.632 E.12613
G1 X20.754 Y118.526 E.03921
G1 X20.204 Y118.304 E.02371
